svgs/light/laptop-code.svg

<svg xmlns="http://www.w3.org/2000/svg" viewBox="0 0 640 512"><!-- Font Awesome Pro 6.0.0-alpha2 by @fontawesome - https://fontawesome.com License - https://fontawesome.com/license (Commercial License) --><path d="M372.688 299.312C375.812 302.438 379.906 304 384 304S392.188 302.438 395.312 299.312L459.312 235.312C465.562 229.062 465.562 218.937 459.312 212.688L395.312 148.688C389.062 142.438 378.937 142.438 372.688 148.688S366.438 165.063 372.688 171.312L425.375 224L372.688 276.688C366.438 282.938 366.438 293.062 372.688 299.312ZM267.312 148.688C261.062 142.438 250.937 142.438 244.688 148.688L180.688 212.688C174.438 218.938 174.438 229.063 180.688 235.312L244.688 299.312C247.812 302.438 251.906 304 256 304S264.188 302.438 267.312 299.312C273.562 293.062 273.562 282.937 267.312 276.688L214.625 224L267.312 171.312C273.562 165.062 273.562 154.938 267.312 148.688ZM80 352C88.844 352 96 344.844 96 336V96C96 78.344 110.359 64 128 64H512C529.641 64 544 78.344 544 96V336C544 344.844 551.156 352 560 352S576 344.844 576 336V96C576 60.719 547.297 32 512 32H128C92.703 32 64 60.719 64 96V336C64 344.844 71.156 352 80 352ZM624 384H16C7.25 384 0 391.25 0 400V416C0 451.25 28.75 480 64 480H576C611.25 480 640 451.25 640 416V400C640 391.25 632.75 384 624 384ZM576 448H64C46.355 448 32 433.645 32 416H608C608 433.645 593.645 448 576 448Z"/></svg>

<svg xmlns="http://www.w3.org/2000/svg" viewBox="0 0 640 512"><!--! Font Awesome Pro 6.3.0 by @fontawesome - https://fontawesome.com License - https://fontawesome.com/license (Commercial License) Copyright 2023 Fonticons, Inc. --><path d="M372.7 299.3C375.8 302.4 379.9 304 384 304s8.188-1.562 11.31-4.688l64-64c6.25-6.25 6.25-16.38 0-22.62l-64-64c-6.25-6.25-16.38-6.25-22.62 0s-6.25 16.38 0 22.62L425.4 224l-52.69 52.69C366.4 282.9 366.4 293.1 372.7 299.3zM267.3 148.7c-6.25-6.25-16.38-6.25-22.62 0l-64 64c-6.25 6.25-6.25 16.38 0 22.62l64 64C247.8 302.4 251.9 304 256 304s8.188-1.562 11.31-4.688c6.25-6.25 6.25-16.38 0-22.62L214.6 224l52.69-52.69C273.6 165.1 273.6 154.9 267.3 148.7zM80 352C88.84 352 96 344.8 96 336V96c0-17.66 14.36-32 32-32h384c17.64 0 32 14.34 32 32v240c0 8.844 7.156 16 16 16s16-7.156 16-16V96c0-35.28-28.7-64-64-64H128C92.7 32 64 60.72 64 96v240C64 344.8 71.16 352 80 352zM624 384h-608C7.25 384 0 391.3 0 400V416c0 35.25 28.75 64 64 64h512c35.25 0 64-28.75 64-64v-16C640 391.3 632.8 384 624 384zM576 448H64c-17.64 0-32-14.36-32-32h576C608 433.6 593.6 448 576 448z"/></svg>
